portal/assets/img/component/badge/anatomy-badge-1.svg

<svg width="212" height="187" viewBox="0 0 212 187" fill="none" xmlns="http://www.w3.org/2000/svg">
<circle cx="73" cy="171" r="12" fill="#344054"/>
<path d="M73.2443 177.159C72.3958 177.159 71.6402 177.013 70.9773 176.722C70.3182 176.426 69.7973 176.021 69.4148 175.506C69.036 174.987 68.8409 174.388 68.8295 173.71H71.3068C71.322 173.994 71.4148 174.244 71.5852 174.46C71.7595 174.672 71.9905 174.837 72.2784 174.955C72.5663 175.072 72.8902 175.131 73.25 175.131C73.625 175.131 73.9564 175.064 74.2443 174.932C74.5322 174.799 74.7576 174.616 74.9205 174.381C75.0833 174.146 75.1648 173.875 75.1648 173.568C75.1648 173.258 75.0777 172.983 74.9034 172.744C74.733 172.502 74.4867 172.312 74.1648 172.176C73.8466 172.04 73.4678 171.972 73.0284 171.972H71.9432V170.165H73.0284C73.3996 170.165 73.7273 170.1 74.0114 169.972C74.2992 169.843 74.5227 169.665 74.6818 169.438C74.8409 169.206 74.9205 168.938 74.9205 168.631C74.9205 168.339 74.8504 168.083 74.7102 167.864C74.5739 167.64 74.3807 167.466 74.1307 167.341C73.8845 167.216 73.5966 167.153 73.267 167.153C72.9337 167.153 72.6288 167.214 72.3523 167.335C72.0758 167.453 71.8542 167.621 71.6875 167.841C71.5208 168.061 71.4318 168.318 71.4205 168.614H69.0625C69.0739 167.943 69.2652 167.352 69.6364 166.841C70.0076 166.33 70.5076 165.93 71.1364 165.642C71.7689 165.35 72.483 165.205 73.2784 165.205C74.0814 165.205 74.7841 165.35 75.3864 165.642C75.9886 165.934 76.4564 166.328 76.7898 166.824C77.1269 167.316 77.2936 167.869 77.2898 168.483C77.2936 169.134 77.0909 169.678 76.6818 170.114C76.2765 170.549 75.7481 170.826 75.0966 170.943V171.034C75.9527 171.144 76.6042 171.441 77.0511 171.926C77.5019 172.407 77.7254 173.009 77.7216 173.733C77.7254 174.396 77.5341 174.985 77.1477 175.5C76.7652 176.015 76.2367 176.42 75.5625 176.716C74.8883 177.011 74.1155 177.159 73.2443 177.159Z" fill="white"/>
<path d="M73 160L73 96" stroke="#344054" stroke-dasharray="2 2"/>
<circle cx="200" cy="78" r="12" fill="#344054"/>
<path d="M194.767 81.9545V80.017L199.625 72.3636H201.295V75.0455H200.307L197.244 79.892V79.983H204.148V81.9545H194.767ZM200.352 84V81.3636L200.398 80.5057V72.3636H202.705V84H200.352Z" fill="white"/>
<path d="M185 79L123 79" stroke="#344054" stroke-dasharray="2 2"/>
<circle cx="86" cy="16" r="12" fill="#344054"/>
<path d="M88.0057 10.3636V22H85.5455V12.6989H85.4773L82.8125 14.3693V12.1875L85.6932 10.3636H88.0057Z" fill="white"/>
<circle cx="12" cy="160" r="12" fill="#344054"/>
<path d="M7.94318 166V164.227L12.0852 160.392C12.4375 160.051 12.733 159.744 12.9716 159.472C13.214 159.199 13.3977 158.932 13.5227 158.67C13.6477 158.405 13.7102 158.119 13.7102 157.812C13.7102 157.472 13.6326 157.178 13.4773 156.932C13.322 156.682 13.1098 156.491 12.8409 156.358C12.572 156.222 12.267 156.153 11.9261 156.153C11.5701 156.153 11.2595 156.225 10.9943 156.369C10.7292 156.513 10.5246 156.72 10.3807 156.989C10.2367 157.258 10.1648 157.578 10.1648 157.949H7.82955C7.82955 157.187 8.00189 156.527 8.34659 155.966C8.69129 155.405 9.17424 154.972 9.79545 154.665C10.4167 154.358 11.1326 154.205 11.9432 154.205C12.7765 154.205 13.5019 154.352 14.1193 154.648C14.7405 154.939 15.2235 155.345 15.5682 155.864C15.9129 156.383 16.0852 156.977 16.0852 157.648C16.0852 158.087 15.9981 158.521 15.8239 158.949C15.6534 159.377 15.3485 159.852 14.9091 160.375C14.4697 160.894 13.8504 161.517 13.0511 162.244L11.3523 163.909V163.989H16.2386V166H7.94318Z" fill="white"/>
<path d="M83 16H39V66" stroke="#344054" stroke-dasharray="2 2"/>
<path d="M25 160H52V94" stroke="#344054" stroke-dasharray="2 2"/>
<path d="M20 71C20 68.7909 21.7909 67 24 67H138C140.209 67 142 68.7909 142 71V87C142 89.2091 140.209 91 138 91H24C21.7909 91 20 89.2091 20 87V71Z" fill="#491DB6"/>
<path d="M36.1485 84.138C36.09 84.471 36.4185 84.7313 36.708 84.5828L40.0005 82.8908L43.2922 84.5828C43.5817 84.7313 43.9102 84.471 43.8517 84.1388L43.2292 80.5913L45.8707 78.0743C46.1182 77.8388 45.9907 77.4083 45.6592 77.3618L41.9857 76.8398L40.3477 73.5945C40.3165 73.5288 40.2673 73.4732 40.2058 73.4343C40.1442 73.3953 40.0729 73.3747 40.0001 73.3747C39.9273 73.3747 39.856 73.3953 39.7945 73.4343C39.7329 73.4732 39.6837 73.5288 39.6525 73.5945L38.0145 76.8405L34.341 77.3625C34.0102 77.409 33.882 77.8395 34.1287 78.075L36.771 80.592L36.1485 84.1395V84.138ZM39.8272 82.0628L37.0627 83.4833L37.5832 80.5155C37.5954 80.4472 37.5907 80.377 37.5693 80.3109C37.548 80.2449 37.5108 80.1851 37.461 80.1368L35.2815 78.0593L38.3205 77.6273C38.3834 77.6178 38.4431 77.5932 38.4944 77.5556C38.5458 77.5179 38.5872 77.4684 38.6152 77.4113L39.999 74.6678L41.3842 77.4113C41.4123 77.4684 41.4537 77.5179 41.505 77.5556C41.5564 77.5932 41.6161 77.6178 41.679 77.6273L44.718 78.0585L42.5385 80.136C42.4885 80.1844 42.4513 80.2443 42.4299 80.3105C42.4086 80.3767 42.4039 80.4471 42.4162 80.5155L42.9367 83.4833L40.1722 82.0628C40.1188 82.0352 40.0595 82.0208 39.9994 82.0208C39.9392 82.0208 39.8799 82.0352 39.8265 82.0628H39.8272Z" fill="white"/>
<path d="M54.8849 84V73.8182H58.902C59.6742 73.8182 60.3321 73.9657 60.8757 74.2607C61.4193 74.5523 61.8336 74.9583 62.1186 75.4787C62.407 75.9957 62.5511 76.5923 62.5511 77.2685C62.5511 77.9446 62.4053 78.5412 62.1136 79.0582C61.822 79.5753 61.3994 79.978 60.8459 80.2663C60.2957 80.5547 59.6295 80.6989 58.8473 80.6989H56.2869V78.9737H58.4993C58.9136 78.9737 59.255 78.9025 59.5234 78.7599C59.7952 78.6141 59.9974 78.4136 60.13 78.1584C60.2659 77.8999 60.3338 77.6032 60.3338 77.2685C60.3338 76.9304 60.2659 76.6354 60.13 76.3835C59.9974 76.1283 59.7952 75.9311 59.5234 75.7919C59.2517 75.6494 58.907 75.5781 58.4893 75.5781H57.0376V84H54.8849ZM63.9096 84V76.3636H65.9629V77.696H66.0424C66.1816 77.2221 66.4153 76.8641 66.7434 76.6222C67.0716 76.3769 67.4494 76.2543 67.877 76.2543C67.983 76.2543 68.0974 76.2609 68.22 76.2741C68.3426 76.2874 68.4503 76.3056 68.5431 76.3288V78.2081C68.4437 78.1783 68.3062 78.1518 68.1305 78.1286C67.9548 78.1054 67.7941 78.0938 67.6483 78.0938C67.3367 78.0938 67.0583 78.1617 66.813 78.2976C66.5711 78.4302 66.3788 78.6158 66.2363 78.8544C66.0971 79.093 66.0275 79.3681 66.0275 79.6797V84H63.9096ZM69.6381 84V76.3636H71.756V84H69.6381ZM70.7021 75.3793C70.3872 75.3793 70.1171 75.2749 69.8917 75.0661C69.6696 74.8539 69.5586 74.6004 69.5586 74.3054C69.5586 74.0137 69.6696 73.7635 69.8917 73.5547C70.1171 73.3426 70.3872 73.2365 70.7021 73.2365C71.0169 73.2365 71.2854 73.3426 71.5075 73.5547C71.7328 73.7635 71.8455 74.0137 71.8455 74.3054C71.8455 74.6004 71.7328 74.8539 71.5075 75.0661C71.2854 75.2749 71.0169 75.3793 70.7021 75.3793ZM73.4526 84V76.3636H75.4711V77.7109H75.5605C75.7196 77.2635 75.9848 76.9105 76.356 76.652C76.7272 76.3935 77.1713 76.2642 77.6884 76.2642C78.2121 76.2642 78.6578 76.3951 79.0257 76.657C79.3936 76.9155 79.6389 77.2668 79.7615 77.7109H79.8411C79.9969 77.2734 80.2786 76.9238 80.6863 76.6619C81.0972 76.3968 81.5828 76.2642 82.1429 76.2642C82.8555 76.2642 83.4339 76.4912 83.878 76.9453C84.3255 77.3961 84.5492 78.0357 84.5492 78.8643V84H82.4363V79.282C82.4363 78.8577 82.3236 78.5395 82.0982 78.3274C81.8728 78.1153 81.5911 78.0092 81.253 78.0092C80.8685 78.0092 80.5686 78.1319 80.3532 78.3771C80.1377 78.6191 80.03 78.9389 80.03 79.3366V84H77.9767V79.2372C77.9767 78.8627 77.869 78.5644 77.6536 78.3423C77.4415 78.1203 77.1614 78.0092 76.8134 78.0092C76.5781 78.0092 76.3659 78.0689 76.177 78.1882C75.9914 78.3042 75.8439 78.4683 75.7346 78.6804C75.6252 78.8892 75.5705 79.1345 75.5705 79.4162V84H73.4526ZM88.3997 84.1442C87.9125 84.1442 87.4783 84.0597 87.0971 83.8906C86.716 83.7183 86.4144 83.4647 86.1923 83.13C85.9735 82.7919 85.8642 82.371 85.8642 81.8672C85.8642 81.4429 85.9421 81.0866 86.0978 80.7983C86.2536 80.5099 86.4657 80.2779 86.7342 80.1023C87.0027 79.9266 87.3076 79.794 87.649 79.7045C87.9937 79.6151 88.3549 79.5521 88.7328 79.5156C89.1769 79.4692 89.5349 79.4261 89.8066 79.3864C90.0784 79.3433 90.2756 79.2803 90.3983 79.1974C90.5209 79.1146 90.5822 78.992 90.5822 78.8295V78.7997C90.5822 78.4848 90.4828 78.2412 90.2839 78.0689C90.0884 77.8965 89.81 77.8104 89.4487 77.8104C89.0675 77.8104 88.7643 77.8949 88.5389 78.0639C88.3135 78.2296 88.1644 78.4384 88.0914 78.6903L86.1326 78.5312C86.2321 78.0672 86.4276 77.6662 86.7193 77.3281C87.0109 76.9867 87.3871 76.7249 87.8478 76.5426C88.3118 76.357 88.8488 76.2642 89.4586 76.2642C89.8829 76.2642 90.2889 76.3139 90.6767 76.4134C91.0678 76.5128 91.4141 76.6669 91.7157 76.8757C92.0207 77.0845 92.2609 77.353 92.4366 77.6811C92.6123 78.0059 92.7001 78.3954 92.7001 78.8494V84H90.6916V82.9411H90.6319C90.5093 83.1797 90.3452 83.3902 90.1397 83.5724C89.9342 83.7514 89.6873 83.8923 89.399 83.995C89.1106 84.0945 88.7775 84.1442 88.3997 84.1442ZM89.0062 82.6825C89.3178 82.6825 89.5929 82.6212 89.8315 82.4986C90.0701 82.3726 90.2574 82.2036 90.3933 81.9915C90.5292 81.7794 90.5971 81.5391 90.5971 81.2706V80.4602C90.5308 80.5033 90.4397 80.5431 90.3237 80.5795C90.211 80.6127 90.0834 80.6442 89.9409 80.674C89.7984 80.7005 89.6558 80.7254 89.5133 80.7486C89.3708 80.7685 89.2415 80.7867 89.1255 80.8033C88.877 80.8397 88.6599 80.8977 88.4743 80.9773C88.2886 81.0568 88.1445 81.1645 88.0417 81.3004C87.939 81.433 87.8876 81.5987 87.8876 81.7976C87.8876 82.0859 87.992 82.3063 88.2008 82.4588C88.4129 82.608 88.6814 82.6825 89.0062 82.6825ZM94.3432 84V76.3636H96.3965V77.696H96.476C96.6152 77.2221 96.8489 76.8641 97.177 76.6222C97.5051 76.3769 97.883 76.2543 98.3105 76.2543C98.4166 76.2543 98.531 76.2609 98.6536 76.2741C98.7762 76.2874 98.8839 76.3056 98.9767 76.3288V78.2081C98.8773 78.1783 98.7398 78.1518 98.5641 78.1286C98.3884 78.1054 98.2277 78.0938 98.0819 78.0938C97.7703 78.0938 97.4919 78.1617 97.2466 78.2976C97.0047 78.4302 96.8124 78.6158 96.6699 78.8544C96.5307 79.093 96.4611 79.3681 96.4611 79.6797V84H94.3432ZM101.612 86.8636C101.343 86.8636 101.091 86.8421 100.856 86.799C100.624 86.7592 100.432 86.7079 100.279 86.6449L100.757 85.0639C101.005 85.1402 101.229 85.1816 101.428 85.1882C101.63 85.1948 101.804 85.1484 101.95 85.049C102.099 84.9496 102.22 84.7805 102.313 84.5419L102.437 84.2188L99.6976 76.3636H101.925L103.506 81.9716H103.585L105.181 76.3636H107.423L104.455 84.8253C104.313 85.2363 104.119 85.5942 103.874 85.8991C103.632 86.2074 103.325 86.4444 102.954 86.6101C102.583 86.7791 102.135 86.8636 101.612 86.8636Z" fill="white"/>
<path d="M122 84.25C120.608 84.25 119.272 83.6969 118.288 82.7123C117.303 81.7277 116.75 80.3924 116.75 79C116.75 77.6076 117.303 76.2723 118.288 75.2877C119.272 74.3031 120.608 73.75 122 73.75C123.392 73.75 124.728 74.3031 125.712 75.2877C126.697 76.2723 127.25 77.6076 127.25 79C127.25 80.3924 126.697 81.7277 125.712 82.7123C124.728 83.6969 123.392 84.25 122 84.25ZM122 85C123.591 85 125.117 84.3679 126.243 83.2426C127.368 82.1174 128 80.5913 128 79C128 77.4087 127.368 75.8826 126.243 74.7574C125.117 73.6321 123.591 73 122 73C120.409 73 118.883 73.6321 117.757 74.7574C116.632 75.8826 116 77.4087 116 79C116 80.5913 116.632 82.1174 117.757 83.2426C118.883 84.3679 120.409 85 122 85Z" fill="white"/>
<path d="M119.484 76.4845C119.519 76.4496 119.561 76.4218 119.606 76.4029C119.652 76.384 119.701 76.3743 119.75 76.3743C119.799 76.3743 119.848 76.384 119.894 76.4029C119.939 76.4218 119.981 76.4496 120.015 76.4845L122 78.4697L123.984 76.4845C124.019 76.4496 124.061 76.422 124.106 76.4031C124.152 76.3842 124.201 76.3745 124.25 76.3745C124.299 76.3745 124.348 76.3842 124.394 76.4031C124.439 76.422 124.481 76.4496 124.515 76.4845C124.55 76.5193 124.578 76.5607 124.597 76.6063C124.616 76.6518 124.625 76.7007 124.625 76.75C124.625 76.7993 124.616 76.8481 124.597 76.8937C124.578 76.9392 124.55 76.9806 124.515 77.0155L122.53 79L124.515 80.9845C124.55 81.0193 124.578 81.0607 124.597 81.1063C124.616 81.1518 124.625 81.2007 124.625 81.25C124.625 81.2993 124.616 81.3481 124.597 81.3937C124.578 81.4392 124.55 81.4806 124.515 81.5155C124.481 81.5503 124.439 81.578 124.394 81.5969C124.348 81.6157 124.299 81.6255 124.25 81.6255C124.201 81.6255 124.152 81.6157 124.106 81.5969C124.061 81.578 124.019 81.5503 123.984 81.5155L122 79.5302L120.015 81.5155C119.981 81.5503 119.939 81.578 119.894 81.5969C119.848 81.6157 119.799 81.6255 119.75 81.6255C119.701 81.6255 119.652 81.6157 119.606 81.5969C119.561 81.578 119.519 81.5503 119.484 81.5155C119.45 81.4806 119.422 81.4392 119.403 81.3937C119.384 81.3481 119.375 81.2993 119.375 81.25C119.375 81.2007 119.384 81.1518 119.403 81.1063C119.422 81.0607 119.45 81.0193 119.484 80.9845L121.47 79L119.484 77.0155C119.45 76.9806 119.422 76.9393 119.403 76.8937C119.384 76.8481 119.374 76.7993 119.374 76.75C119.374 76.7007 119.384 76.6518 119.403 76.6063C119.422 76.5607 119.45 76.5193 119.484 76.4845Z" fill="white"/>
<path d="M24 68H138V66H24V68ZM141 71V87H143V71H141ZM138 90H24V92H138V90ZM21 87V71H19V87H21ZM24 90C22.3431 90 21 88.6569 21 87H19C19 89.7614 21.2386 92 24 92V90ZM141 87C141 88.6569 139.657 90 138 90V92C140.761 92 143 89.7614 143 87H141ZM138 68C139.657 68 141 69.3431 141 71H143C143 68.2386 140.761 66 138 66V68ZM24 66C21.2386 66 19 68.2386 19 71H21C21 69.3431 22.3431 68 24 68V66Z" fill="#491DB6"/>
</svg>

<svg width="212" height="187" viewBox="0 0 212 187" fill="none" xmlns="http://www.w3.org/2000/svg"><circle cx="73" cy="171" r="12" fill="#344054"/><path d="M73.244 177.159c-.848 0-1.604-.146-2.267-.437-.659-.296-1.18-.701-1.562-1.216a3.058 3.058 0 0 1-.586-1.796h2.478c.015.284.108.534.278.75.175.212.406.377.693.495.288.117.612.176.972.176.375 0 .706-.067.994-.199.288-.133.514-.316.677-.551.162-.235.244-.506.244-.813 0-.31-.087-.585-.262-.824a1.67 1.67 0 0 0-.738-.568c-.318-.136-.697-.204-1.137-.204h-1.085v-1.807h1.085c.372 0 .7-.065.983-.193a1.58 1.58 0 0 0 .67-.534c.16-.232.24-.5.24-.807 0-.292-.07-.548-.21-.767a1.385 1.385 0 0 0-.58-.523 1.884 1.884 0 0 0-.864-.188c-.333 0-.638.061-.915.182a1.603 1.603 0 0 0-.665.506 1.33 1.33 0 0 0-.266.773h-2.359a3.029 3.029 0 0 1 .574-1.773c.372-.511.872-.911 1.5-1.199.633-.292 1.347-.437 2.142-.437.803 0 1.506.145 2.108.437.603.292 1.07.686 1.404 1.182.337.492.504 1.045.5 1.659.004.651-.2 1.195-.608 1.631-.406.435-.934.712-1.585.829v.091c.856.11 1.507.407 1.954.892.45.481.674 1.083.67 1.807a2.838 2.838 0 0 1-.573 1.767c-.383.515-.911.92-1.585 1.216-.675.295-1.448.443-2.319.443Z" fill="#fff"/><path d="M73 160V96" stroke="#344054" stroke-dasharray="2 2"/><circle cx="200" cy="78" r="12" fill="#344054"/><path d="M194.767 81.954v-1.937l4.858-7.653h1.67v2.681h-.988l-3.063 4.847v.091h6.904v1.971h-9.381ZM200.352 84v-2.636l.046-.858v-8.142h2.307V84h-2.353Z" fill="#fff"/><path d="M185 79h-62" stroke="#344054" stroke-dasharray="2 2"/><circle cx="86" cy="16" r="12" fill="#344054"/><path d="M88.006 10.364V22h-2.46v-9.301h-.069l-2.665 1.67v-2.181l2.881-1.824h2.313Z" fill="#fff"/><circle cx="12" cy="160" r="12" fill="#344054"/><path d="M7.943 166v-1.773l4.142-3.835c.352-.341.648-.648.887-.92.242-.273.426-.54.55-.802.126-.265.188-.551.188-.858 0-.34-.077-.634-.233-.88a1.533 1.533 0 0 0-.636-.574 2 2 0 0 0-.915-.205c-.356 0-.667.072-.932.216a1.49 1.49 0 0 0-.613.62c-.144.269-.216.589-.216.96H7.83c0-.762.172-1.422.517-1.983a3.451 3.451 0 0 1 1.448-1.301c.622-.307 1.338-.46 2.148-.46.834 0 1.559.147 2.176.443.622.291 1.104.697 1.45 1.216.344.519.516 1.113.516 1.784 0 .439-.087.873-.261 1.301-.17.428-.476.903-.915 1.426-.44.519-1.059 1.142-1.858 1.869l-1.699 1.665v.08h4.887V166H7.943Z" fill="#fff"/><path d="M83 16H39v50m-14 94h27V94" stroke="#344054" stroke-dasharray="2 2"/><path d="M20 71a4 4 0 0 1 4-4h114a4 4 0 0 1 4 4v16a4 4 0 0 1-4 4H24a4 4 0 0 1-4-4V71Z" fill="#491DB6"/><path d="M36.148 84.138c-.058.333.27.593.56.445l3.293-1.692 3.291 1.692c.29.148.618-.112.56-.444l-.623-3.548 2.642-2.517c.247-.235.12-.666-.212-.712l-3.673-.522-1.638-3.246a.385.385 0 0 0-.695 0l-1.639 3.247-3.673.522c-.33.046-.459.477-.212.712l2.642 2.517-.623 3.547v-.001Zm3.68-2.075-2.765 1.42.52-2.968a.423.423 0 0 0-.122-.378l-2.18-2.078 3.04-.432a.394.394 0 0 0 .294-.216L40 74.668l1.385 2.743a.396.396 0 0 0 .295.216l3.039.431-2.18 2.078a.424.424 0 0 0-.122.38l.52 2.967-2.764-1.42a.376.376 0 0 0-.345 0ZM54.885 84V73.818h4.017c.772 0 1.43.148 1.974.443.543.291.958.697 1.243 1.218.288.517.432 1.113.432 1.79 0 .676-.146 1.272-.437 1.79a3.024 3.024 0 0 1-1.268 1.207c-.55.289-1.216.433-1.999.433h-2.56v-1.725h2.212c.415 0 .756-.072 1.024-.214.272-.146.474-.346.607-.602.136-.258.204-.555.204-.89 0-.338-.068-.633-.204-.885a1.361 1.361 0 0 0-.607-.591c-.271-.143-.616-.214-1.034-.214h-1.451V84h-2.153Zm9.025 0v-7.636h2.053v1.332h.08c.139-.474.372-.832.7-1.074a1.843 1.843 0 0 1 1.134-.368 3.217 3.217 0 0 1 .666.075v1.88a2.77 2.77 0 0 0-.413-.08 3.707 3.707 0 0 0-.482-.035c-.311 0-.59.068-.835.204a1.501 1.501 0 0 0-.577.556 1.612 1.612 0 0 0-.209.826V84H63.91Zm5.728 0v-7.636h2.118V84h-2.118Zm1.064-8.62a1.15 1.15 0 0 1-.81-.314 1.016 1.016 0 0 1-.333-.76.99.99 0 0 1 .333-.751 1.14 1.14 0 0 1 .81-.319c.315 0 .583.107.805.319a.988.988 0 0 1 .338.75c0 .295-.112.549-.338.761-.222.209-.49.313-.805.313Zm2.75 8.62v-7.636h2.02v1.347h.089c.159-.448.424-.8.795-1.059.371-.258.815-.388 1.332-.388.524 0 .97.131 1.338.393.368.258.613.61.736 1.054h.08c.155-.438.437-.787.844-1.05.411-.264.897-.397 1.457-.397.713 0 1.29.227 1.735.681.448.451.671 1.09.671 1.92V84h-2.113v-4.718c0-.424-.112-.742-.338-.955a1.185 1.185 0 0 0-.845-.318c-.385 0-.684.123-.9.368-.215.242-.323.562-.323.96V84h-2.053v-4.763c0-.374-.108-.673-.323-.895-.212-.222-.493-.333-.84-.333-.236 0-.448.06-.637.18a1.22 1.22 0 0 0-.442.491 1.56 1.56 0 0 0-.165.736V84h-2.117Zm14.948.144c-.488 0-.922-.084-1.303-.253a2.097 2.097 0 0 1-.905-.761c-.218-.338-.328-.759-.328-1.263 0-.424.078-.78.234-1.069.156-.288.368-.52.636-.696a3.13 3.13 0 0 1 .915-.398 6.982 6.982 0 0 1 1.084-.188c.444-.047.802-.09 1.074-.13.271-.043.469-.106.591-.189a.415.415 0 0 0 .184-.368v-.03c0-.314-.1-.558-.298-.73-.196-.172-.474-.259-.835-.259-.382 0-.685.085-.91.254a1.167 1.167 0 0 0-.448.626l-1.958-.159c.1-.464.295-.865.586-1.203a2.815 2.815 0 0 1 1.129-.785c.464-.186 1-.279 1.61-.279.425 0 .83.05 1.219.15.39.099.737.253 1.039.462.305.209.545.477.72.805.176.325.264.714.264 1.168V84h-2.008v-1.059h-.06c-.123.239-.287.45-.492.631-.206.18-.453.32-.741.423-.288.1-.621.15-1 .15Zm.606-1.462c.312 0 .587-.06.826-.183.238-.126.425-.295.561-.507a1.31 1.31 0 0 0 .204-.721v-.81a1.132 1.132 0 0 1-.273.118 4.95 4.95 0 0 1-.383.095c-.143.026-.285.051-.428.075l-.388.054a2.615 2.615 0 0 0-.65.174 1.04 1.04 0 0 0-.433.323.788.788 0 0 0-.154.498c0 .288.104.508.313.66.212.15.48.225.805.225ZM94.343 84v-7.636h2.053v1.332h.08c.14-.474.373-.832.701-1.074a1.842 1.842 0 0 1 1.133-.368 3.218 3.218 0 0 1 .667.075v1.88a2.77 2.77 0 0 0-.413-.08 3.707 3.707 0 0 0-.482-.035c-.312 0-.59.068-.835.204a1.501 1.501 0 0 0-.577.556c-.14.239-.209.514-.209.826V84h-2.118Zm7.269 2.864a4.2 4.2 0 0 1-.756-.065 2.764 2.764 0 0 1-.577-.154l.478-1.581c.248.076.472.118.671.124a.853.853 0 0 0 .522-.139c.149-.1.27-.269.363-.507l.124-.323-2.74-7.855h2.228l1.581 5.608h.079l1.596-5.608h2.242l-2.968 8.461a3.546 3.546 0 0 1-.581 1.074 2.386 2.386 0 0 1-.92.711c-.371.17-.819.254-1.342.254ZM122 84.25a5.249 5.249 0 1 1 0-10.498 5.249 5.249 0 0 1 0 10.498Zm0 .75a6.002 6.002 0 0 0 6-6 6 6 0 1 0-6 6Z" fill="#fff"/><path d="M119.484 76.484a.384.384 0 0 1 .266-.11.38.38 0 0 1 .265.11L122 78.47l1.984-1.986a.384.384 0 0 1 .266-.11.38.38 0 0 1 .347.232.372.372 0 0 1 0 .288.378.378 0 0 1-.082.121L122.53 79l1.985 1.984a.376.376 0 1 1-.531.532L122 79.53l-1.985 1.986a.37.37 0 0 1-.409.08.385.385 0 0 1-.203-.202.373.373 0 0 1 0-.288.39.39 0 0 1 .081-.121L121.47 79l-1.986-1.984a.39.39 0 0 1-.11-.266.373.373 0 0 1 .11-.266Z" fill="#fff"/><path d="M24 68h114v-2H24v2Zm117 3v16h2V71h-2Zm-3 19H24v2h114v-2ZM21 87V71h-2v16h2Zm3 3a3 3 0 0 1-3-3h-2a5 5 0 0 0 5 5v-2Zm117-3a3 3 0 0 1-3 3v2a5 5 0 0 0 5-5h-2Zm-3-19a3 3 0 0 1 3 3h2a5 5 0 0 0-5-5v2ZM24 66a5 5 0 0 0-5 5h2a3 3 0 0 1 3-3v-2Z" fill="#491DB6"/></svg>
